assets/Steaming bowl/Flat/steaming_bowl_flat.svg

<svg width="32" height="32" viewBox="0 0 32 32" fill="none" xmlns="http://www.w3.org/2000/svg">
<path d="M27.9 2.00453L11.26 3.69453C10.78 3.74453 10.42 4.17453 10.46 4.65453C10.5 5.14453 10.92 5.50453 11.4 5.47453L28.1 4.61453C28.6 4.58453 28.99 4.15453 28.95 3.65453L28.88 2.82453C28.84 2.32453 28.4 1.95453 27.9 2.00453Z" fill="#E39D89"/>
<path d="M12.49 3.33447C12.7661 3.33447 12.99 3.55833 12.99 3.83447V18.3645C12.99 18.6406 12.7661 18.8645 12.49 18.8645C12.2138 18.8645 11.99 18.6406 11.99 18.3645V3.83447C11.99 3.55833 12.2138 3.33447 12.49 3.33447Z" fill="#FCD53F"/>
<path d="M28.09 7.38443L11.38 7.01443C10.89 6.99443 10.48 7.37443 10.46 7.86443C10.44 8.34443 10.81 8.76443 11.29 8.79443L27.97 9.99443C28.47 10.0344 28.91 9.64443 28.93 9.14443L28.97 8.31443C28.99 7.81443 28.59 7.39443 28.09 7.38443Z" fill="#E39D89"/>
<path d="M14.97 7.12451C14.97 6.84837 14.7461 6.62451 14.47 6.62451C14.1938 6.62451 13.97 6.84837 13.97 7.12451V18.5945C13.97 18.8707 14.1938 19.0945 14.47 19.0945C14.7461 19.0945 14.97 18.8707 14.97 18.5945V7.12451Z" fill="#FCD53F"/>
<path d="M17 7.12451C17 6.84837 16.7761 6.62451 16.5 6.62451C16.2238 6.62451 16 6.84837 16 7.12451V13.4745C16 13.7507 16.2238 13.9745 16.5 13.9745C16.7761 13.9745 17 13.7507 17 13.4745V7.12451Z" fill="#FCD53F"/>
<path d="M21.16 25.3H8.70998L7.71998 28.85C7.55998 29.43 7.98998 30 8.59998 30H21.28C21.88 30 22.32 29.43 22.16 28.85L21.16 25.3Z" fill="#CA0B4A"/>
<path d="M17.72 27.2146H12.14C7.09 27.2146 3 23.1146 3 18.0646V16.4046C3 16.0246 3.31 15.7146 3.69 15.7146H26.19C26.57 15.7146 26.88 16.0246 26.88 16.4046V18.0646C26.87 23.1146 22.78 27.2146 17.72 27.2146Z" fill="#F8312F"/>
</svg>

<svg xmlns="http://www.w3.org/2000/svg" width="32" height="32" fill="none"><path fill="#E39D89" d="m27.9 2.005-16.64 1.69c-.48.05-.84.48-.8.96.04.49.46.85.94.82l16.7-.86a.9.9 0 0 0 .85-.96l-.07-.83a.894.894 0 0 0-.98-.82Z"/><path fill="#FCD53F" d="M12.49 3.334a.5.5 0 0 1 .5.5v14.53a.5.5 0 0 1-1 0V3.835a.5.5 0 0 1 .5-.5Z"/><path fill="#E39D89" d="m28.09 7.384-16.71-.37c-.49-.02-.9.36-.92.85-.02.48.35.9.83.93l16.68 1.2c.5.04.94-.35.96-.85l.04-.83c.02-.5-.38-.92-.88-.93Z"/><path fill="#FCD53F" d="M14.97 7.125a.5.5 0 0 0-1 0v11.47a.5.5 0 1 0 1 0V7.124ZM17 7.125a.5.5 0 0 0-1 0v6.35a.5.5 0 1 0 1 0v-6.35Z"/><path fill="#CA0B4A" d="M21.16 25.3H8.71l-.99 3.55c-.16.58.27 1.15.88 1.15h12.68c.6 0 1.04-.57.88-1.15l-1-3.55Z"/><path fill="#F8312F" d="M17.72 27.215h-5.58c-5.05 0-9.14-4.1-9.14-9.15v-1.66c0-.38.31-.69.69-.69h22.5c.38 0 .69.31.69.69v1.66c-.01 5.05-4.1 9.15-9.16 9.15Z"/></svg>
